X: 2
T: The Dusty Miller
R: slip jig
M: 9/8
L: 1/8
K: Cmaj
|: A3 A2G A2G | A3 A2G B2d | A3 A2G A2G | BBB B2A B2d :||: A2D DDD A3 | A2D DDD B2d | A2D DDD G2A | B3 B2A B2d :|


Tune 4323	Setting 4323

